tools/download-figma-icons/icons/outlined-medium/fan.svg

<svg width="24" height="24" viewBox="0 0 24 24" fill="none" xmlns="http://www.w3.org/2000/svg">
<path d="M23.5436 5.40788C22.7864 3.7586 21.1745 2.54413 18.753 1.86193C16.7887 1.30717 15.1469 1.51708 13.8724 2.49165C12.0056 3.88604 11.4808 6.47991 11.3233 7.94176C11.0394 7.8172 10.801 7.60767 10.6411 7.34203C10.4012 6.87723 10.4837 6.12756 10.911 4.99556C12.0056 2.03435 10.6561 0.872363 9.75646 0.445051C9.06923 0.151395 8.32964 0 7.5823 0C6.83496 0 6.09537 0.151395 5.40814 0.445051C3.75879 1.22471 2.54426 2.8365 1.85453 5.25794C1.29974 7.22208 1.51716 8.86386 2.49178 10.1458C3.88624 12.005 6.48023 12.5298 7.94216 12.6872C7.81759 12.9711 7.60805 13.2095 7.34239 13.3694C6.87757 13.6093 6.12787 13.5268 4.99581 13.0995C2.02696 12.005 0.872407 13.3544 0.445073 14.254C0.151403 14.9412 0 15.6807 0 16.428C0 17.1753 0.151403 17.9149 0.445073 18.6021C1.19478 20.2739 2.81415 21.4658 5.24321 22.1555C5.89418 22.3439 6.56734 22.4448 7.24493 22.4554C8.28277 22.4766 9.2973 22.1463 10.1238 21.5183C11.9681 20.1239 12.5079 17.5301 12.6653 16.0682C12.9493 16.1928 13.1876 16.4023 13.3476 16.6679C13.5875 17.1327 13.505 17.8824 13.0777 19.0144C12.0056 21.9756 13.3551 23.1376 14.2547 23.5649C14.9388 23.8592 15.6767 24.0073 16.4214 23.9997C17.1729 24.0053 17.9169 23.8493 18.603 23.5424C20.2749 22.7928 21.4669 21.1735 22.1566 18.7445C22.7114 16.7879 22.494 15.1386 21.5194 13.8642C20.1249 12.02 17.5309 11.4727 16.069 11.3153C16.1949 11.0341 16.4043 10.7985 16.6688 10.6406C17.1336 10.4007 17.8833 10.4832 19.0154 10.9105C22.0142 11.9975 23.1388 10.6556 23.5661 9.75597C23.8562 9.06726 24.0038 8.32692 23.9999 7.57962C23.9961 6.83232 23.8408 6.09354 23.5436 5.40788ZM12.0056 14.254C11.5607 14.254 11.1259 14.1221 10.756 13.875C10.3862 13.6278 10.0979 13.2766 9.92766 12.8656C9.75743 12.4547 9.71289 12.0025 9.79967 11.5662C9.88646 11.13 10.1007 10.7292 10.4152 10.4147C10.7298 10.1002 11.1305 9.88596 11.5668 9.79918C12.0031 9.7124 12.4553 9.75694 12.8663 9.92717C13.2773 10.0974 13.6285 10.3856 13.8757 10.7555C14.1228 11.1253 14.2547 11.5602 14.2547 12.005C14.2547 12.6015 14.0177 13.1735 13.596 13.5953C13.1742 14.017 12.6021 14.254 12.0056 14.254ZM3.68382 9.2387C3.00908 8.35408 2.88163 7.15461 3.30146 5.67776C3.86374 3.69113 4.80088 2.40169 6.0304 1.83194C7.01735 1.42581 8.12476 1.42581 9.11171 1.83194C9.43408 1.98188 10.2813 2.3867 9.50156 4.50077C9.10421 5.56531 8.75185 6.9372 9.30663 8.06171C9.47451 8.3787 9.70389 8.65904 9.98137 8.88635C9.56491 9.15335 9.20542 9.50014 8.92363 9.90672C8.64183 10.3133 8.44331 10.7716 8.33951 11.2553C7.18495 11.1129 4.80838 10.723 3.68382 9.2387ZM9.23916 20.3263C8.3545 21.001 7.15497 21.1285 5.67804 20.7087C3.69131 20.1464 2.40181 19.2093 1.83203 17.9799C1.42589 16.993 1.42589 15.8856 1.83203 14.8987C1.98198 14.5839 2.38682 13.7292 4.501 14.5089C5.56558 14.9062 6.93005 15.2586 8.05462 14.7038C8.37511 14.538 8.6583 14.3084 8.88679 14.0291C9.15381 14.4455 9.50061 14.805 9.90722 15.0868C10.3138 15.3686 10.7722 15.5671 11.2559 15.6709C11.1134 16.8254 10.7236 19.2018 9.23916 20.3263ZM20.3274 14.7713C21.0021 15.6559 21.1295 16.8554 20.7097 18.3322C20.1474 20.3188 19.2103 21.6083 17.9808 22.178C17.4925 22.3811 16.9689 22.4857 16.4401 22.4857C15.9113 22.4857 15.3877 22.3811 14.8995 22.178C14.5771 22.0281 13.7299 21.6233 14.5096 19.5092C14.907 18.4447 15.2593 17.0728 14.7045 15.9558C14.5387 15.6353 14.3091 15.3521 14.0298 15.1236C14.4455 14.8575 14.8045 14.5119 15.0862 14.1066C15.368 13.7014 15.5669 13.2445 15.6717 12.7622C16.8262 12.8971 19.2028 13.2869 20.3274 14.7713ZM22.2091 9.11125C22.0592 9.43361 21.6543 10.2807 19.5402 9.50108C18.4756 9.10375 17.1111 8.75141 15.9865 9.30617C15.666 9.47198 15.3829 9.70159 15.1544 9.98087C14.8882 9.56522 14.5426 9.20622 14.1373 8.92448C13.732 8.64274 13.2751 8.4438 12.7928 8.33909C12.8977 7.1846 13.2876 4.80814 14.772 3.68363C15.6567 3.00893 16.8562 2.88148 18.3331 3.3013C20.3199 3.86355 21.6094 4.80064 22.1791 6.0301C22.5949 7.01305 22.6057 8.1204 22.2091 9.11125Z" fill="black"/>
</svg>

<svg width="24" height="24" viewBox="0 0 24 24" fill="none" xmlns="http://www.w3.org/2000/svg"><path d="M23.544 5.408c-.758-1.65-2.37-2.864-4.791-3.546-1.964-.555-3.606-.345-4.88.63-1.867 1.394-2.392 3.988-2.55 5.45a1.5 1.5 0 0 1-.682-.6c-.24-.465-.157-1.214.27-2.346 1.095-2.962-.255-4.124-1.155-4.55a5.533 5.533 0 0 0-4.348 0c-1.65.779-2.864 2.39-3.553 4.812-.555 1.964-.338 3.606.637 4.888 1.394 1.859 3.988 2.384 5.45 2.541a1.5 1.5 0 0 1-.6.682c-.464.24-1.214.158-2.346-.27-2.969-1.094-4.124.255-4.55 1.155a5.532 5.532 0 0 0 0 4.348c.749 1.672 2.368 2.864 4.797 3.553a7.63 7.63 0 0 0 2.002.3 4.603 4.603 0 0 0 2.879-.937c1.844-1.394 2.384-3.988 2.541-5.45a1.5 1.5 0 0 1 .683.6c.24.465.157 1.214-.27 2.346-1.072 2.962.277 4.124 1.177 4.55A5.344 5.344 0 0 0 16.42 24a5.247 5.247 0 0 0 2.182-.458c1.672-.75 2.864-2.369 3.554-4.798.554-1.956.337-3.605-.638-4.88-1.394-1.844-3.988-2.391-5.45-2.549a1.5 1.5 0 0 1 .6-.674c.465-.24 1.214-.158 2.346.27 3 1.087 4.124-.255 4.551-1.155a5.532 5.532 0 0 0-.022-4.348Zm-11.538 8.846a2.25 2.25 0 1 1 0-4.499 2.25 2.25 0 0 1 0 4.499ZM3.684 9.239c-.675-.885-.802-2.084-.383-3.561.563-1.987 1.5-3.276 2.73-3.846a4.049 4.049 0 0 1 3.08 0c.323.15 1.17.555.39 2.669-.397 1.064-.75 2.436-.194 3.56.168.318.397.598.674.825a3.749 3.749 0 0 0-1.641 2.37c-1.155-.143-3.532-.533-4.656-2.017Zm5.555 11.087c-.885.675-2.084.802-3.561.383-1.987-.563-3.276-1.5-3.846-2.73a4.048 4.048 0 0 1 0-3.08c.15-.315.555-1.17 2.669-.39 1.065.397 2.429.75 3.554.195.32-.166.603-.396.832-.675a3.75 3.75 0 0 0 2.369 1.642c-.143 1.154-.532 3.53-2.017 4.655Zm11.088-5.555c.675.885.802 2.084.383 3.561-.563 1.987-1.5 3.276-2.73 3.846a4.012 4.012 0 0 1-3.08 0c-.323-.15-1.17-.555-.39-2.669.397-1.064.75-2.436.194-3.553a2.646 2.646 0 0 0-.674-.832 3.746 3.746 0 0 0 1.642-2.362c1.154.135 3.53.525 4.655 2.01Zm1.882-5.66c-.15.323-.555 1.17-2.669.39-1.064-.397-2.429-.75-3.553-.195a2.657 2.657 0 0 0-.833.675 3.749 3.749 0 0 0-2.361-1.642c.105-1.154.495-3.53 1.979-4.655.885-.675 2.084-.803 3.561-.383 1.987.563 3.276 1.5 3.846 2.73.416.982.427 2.09.03 3.08Z" fill="currentColor"/></svg>
